project/images/official/editable/541.svg

<?xml version="1.0" encoding="UTF-8" standalone="no"?>
<svg
   width="39.029526pt"
   height="36.138451pt"
   viewBox="0 0 39.029526 36.138451"
   version="1.1"
   id="svg3513"
   xmlns="http://www.w3.org/2000/svg"
   xmlns:svg="http://www.w3.org/2000/svg">
  <defs
     id="defs3517" />
  <g
     id="layer2"
     style="display:inline"
     transform="matrix(0.74036996,0,0,1,0.09569326,-0.14695174)" />
  <rect
     style="display:inline;fill:#ffffff;stroke:none;stroke-width:0;stroke-linecap:square;stroke-miterlimit:4;stroke-dasharray:none;stroke-opacity:1"
     id="rect3621"
     width="39.029526"
     height="36.138451"
     x="1.3877788e-17"
     y="-2.7755576e-17" />
  <rect
     style="display:inline;fill:none;stroke:#000000;stroke-width:0.133966;stroke-linecap:square;stroke-miterlimit:4;stroke-dasharray:none;stroke-opacity:1"
     id="rect3621-4"
     width="38.172791"
     height="35.281715"
     x="0.42836794"
     y="0.42836797" />
  <g
     id="surface1-8"
     transform="translate(3.9952317,3.4731862)">
    <path
       style="fill:#211e1e;fill-opacity:1;fill-rule:nonzero;stroke:none"
       d="m 10.3125,0.667969 c 0.953125,-0.523438 2.117188,-0.164063 2.65625,0.765625 0.527344,0.933594 0.21875,2.109375 -0.703125,2.65625 C 11.308594,4.664062 10.078125,4.355469 9.507812,3.398438 8.953125,2.425781 9.328125,1.195312 10.3125,0.667969"
       id="path5980" />
    <path
       style="fill:#211e1e;fill-opacity:1;fill-rule:nonzero;stroke:none"
       d="M 1.292969,24.261719 C 1.34375,24.335938 1.40625,24.445312 1.445312,24.5 1.5,24.585938 1.644531,24.796875 1.6875,24.875 c 0.074219,0.07422 0.160156,0.210938 0.21875,0.265625 0.042969,0.07422 0.15625,0.195313 0.207031,0.265625 0.027344,0.02344 0.085938,0.08203 0.109375,0.109375 l 8.15625,-4.707031 c 0.01563,-0.08203 0.01563,-0.171875 0.01563,-0.253906 -0.0078,-0.164063 0.01172,-0.324219 0.02734,-0.488282 0.02344,-0.1875 0.05859,-0.425781 0.113281,-0.621094 0.06641,-0.15625 0.132813,-0.324218 0.238282,-0.472656 0.05859,-0.07422 0.117187,-0.167968 0.179687,-0.253906 L 11.121095,18.523438 15.101563,13.613281 12.29297,8.691406 C 12.25,8.609375 12.191406,8.496094 12.15625,8.394531 12.042969,8.164062 11.933594,7.925781 11.863281,7.660156 11.78125,7.414062 11.726562,7.164062 11.726562,6.898438 11.710938,6.363281 11.855469,5.84375 12.128906,5.378906 12.371094,4.917969 12.734375,4.519531 13.171875,4.246094 13.675781,3.960938 14.238281,3.828125 14.8125,3.835938 15.171875,3.859375 15.535156,3.929688 15.878906,4.066406 16.125,4.183594 16.375,4.335938 16.605469,4.507812 l 0.253906,0.230469 4.621094,3.605469 3.285156,4.15625 2.621094,-1.476562 0.386719,0.625 -1.886719,1.09375 2.382812,4.148437 1.875,-1.042969 0.464844,0.746094 -19.007813,10.96875 c -0.04297,0.01953 -0.222656,0.128906 -0.265624,0.136719 -0.597657,0.316406 -1.253907,0.574219 -1.90625,0.777343 C 8.757812,28.640625 8.082031,28.742188 7.375,28.765625 6.675781,28.769531 5.964844,28.671875 5.273438,28.496094 4.605469,28.316406 3.957031,28.035156 3.359375,27.691406 2.738281,27.335938 2.15625,26.925781 1.6875,26.445312 1.25,26.011719 0.894531,25.542969 0.585938,25.046875 0.535156,24.960938 0.472656,24.859375 0.429688,24.78125 l 0.863281,-0.519531"
       id="path5982" />
    <path
       style="fill:#ffffff;fill-opacity:1;fill-rule:nonzero;stroke:none"
       d="m 6.46875,23.996094 1.390625,2.398437 -0.167969,0.488281 0.542969,0.101563 0.34375,0.640625 c -0.109375,0.01563 -0.25,0.03516 -0.34375,0.06641 C 7.945312,27.726562 7.664062,27.75 7.375,27.769531 6.785156,27.777344 6.144531,27.667969 5.570312,27.511719 4.984375,27.34375 4.394531,27.128906 3.875,26.855469 3.558594,26.667969 3.273438,26.480469 3.007812,26.25 2.949219,26.207031 2.875,26.128906 2.804688,26.085938 L 6.46875,23.996094"
       id="path5984" />
    <path
       style="fill:#ffffff;fill-opacity:1;fill-rule:nonzero;stroke:none"
       d="m 7.289062,23.507812 2.953126,-1.683593 -0.460938,3.734375 0.445312,0.07813 -0.429687,0.390625 -1.097656,-0.113282 -1.410157,-2.40625"
       id="path5986" />
    <path
       style="fill:#ffffff;fill-opacity:1;fill-rule:nonzero;stroke:none"
       d="m 9.746094,27.316406 -0.179688,0.06641 -0.09375,-0.125 0.0625,-0.03516 0.210938,0.09375"
       id="path5988" />
    <path
       style="fill:#ffffff;fill-opacity:1;fill-rule:nonzero;stroke:none"
       d="m 18.039062,22.816406 -6.011718,3.5 1.679687,-4.984375 C 13.710938,21.261719 13.804688,21 13.84375,20.9375 c 0.0625,-0.1875 0.128906,-0.351562 0.207031,-0.527344 0.121094,-0.230468 0.25,-0.4375 0.417969,-0.632812 L 14.75,19.425781 c 0.07813,-0.09375 0.238281,-0.332031 0.316406,-0.398437 0.08594,-0.07031 0.171875,-0.128906 0.257813,-0.183594 0.05859,-0.03125 0.125,-0.06641 0.179687,-0.09766 0.05078,-0.01172 0.101563,-0.03906 0.144532,-0.07031 l 2.390624,4.140625"
       id="path5990" />
    <path
       style="fill:#ffffff;fill-opacity:1;fill-rule:nonzero;stroke:none"
       d="m 18.902344,22.332031 -2.390625,-4.152343 6.699219,-3.859376 c 0.04297,0.01563 0.07812,0.03516 0.105468,0.05859 0.210938,0.09375 0.425782,0.105469 0.640625,0.0625 0.1875,-0.01953 0.367188,-0.113281 0.535157,-0.230468 0.136718,-0.101563 0.242187,-0.214844 0.335937,-0.335938 0.06641,-0.117188 0.125,-0.269531 0.144531,-0.40625 0.0078,-0.04687 0.0078,-0.128906 0.02344,-0.171875 l 0.03516,-0.0078 2.398438,4.148438 -8.527344,4.894531"
       id="path5992" />
    <path
       style="fill:#ffffff;fill-opacity:1;fill-rule:nonzero;stroke:none"
       d="m 15.519531,13.339844 -0.527343,-0.898438 3.738281,-2.160156 0.546875,0.871094 -3.757813,2.1875"
       id="path5994" />
    <path
       style="fill:#ffffff;fill-opacity:1;fill-rule:nonzero;stroke:none"
       d="m 21.632812,14.335938 -3.019531,-5.191407 1.371094,1.015625 2.699219,3.554688 -1.050782,0.621094"
       id="path5996" />
  </g>
</svg>

<?xml version="1.0" encoding="UTF-8"?>
<svg xmlns="http://www.w3.org/2000/svg" xmlns:xlink="http://www.w3.org/1999/xlink" width="31pt" height="29pt" viewBox="0 0 31 29" version="1.1">
<g id="surface1">
<path style=" stroke:none;fill-rule:nonzero;fill:rgb(13.729858%,12.159729%,12.548828%);fill-opacity:1;" d="M 10.3125 0.667969 C 11.265625 0.144531 12.429688 0.503906 12.96875 1.433594 C 13.496094 2.367188 13.1875 3.542969 12.265625 4.089844 C 11.308594 4.664062 10.078125 4.355469 9.507812 3.398438 C 8.953125 2.425781 9.328125 1.195312 10.3125 0.667969 "/>
<path style=" stroke:none;fill-rule:nonzero;fill:rgb(13.729858%,12.159729%,12.548828%);fill-opacity:1;" d="M 1.292969 24.261719 C 1.34375 24.335938 1.40625 24.445312 1.445312 24.5 C 1.5 24.585938 1.644531 24.796875 1.6875 24.875 C 1.761719 24.949219 1.847656 25.085938 1.90625 25.140625 C 1.949219 25.214844 2.0625 25.335938 2.113281 25.40625 C 2.140625 25.429688 2.199219 25.488281 2.222656 25.515625 L 10.378906 20.808594 C 10.394531 20.726562 10.394531 20.636719 10.394531 20.554688 C 10.386719 20.390625 10.40625 20.230469 10.421875 20.066406 C 10.445312 19.878906 10.480469 19.640625 10.535156 19.445312 C 10.601562 19.289062 10.667969 19.121094 10.773438 18.972656 C 10.832031 18.898438 10.890625 18.804688 10.953125 18.71875 L 11.121094 18.523438 L 15.101562 13.613281 L 12.292969 8.691406 C 12.25 8.609375 12.191406 8.496094 12.15625 8.394531 C 12.042969 8.164062 11.933594 7.925781 11.863281 7.660156 C 11.78125 7.414062 11.726562 7.164062 11.726562 6.898438 C 11.710938 6.363281 11.855469 5.84375 12.128906 5.378906 C 12.371094 4.917969 12.734375 4.519531 13.171875 4.246094 C 13.675781 3.960938 14.238281 3.828125 14.8125 3.835938 C 15.171875 3.859375 15.535156 3.929688 15.878906 4.066406 C 16.125 4.183594 16.375 4.335938 16.605469 4.507812 L 16.859375 4.738281 L 21.480469 8.34375 L 24.765625 12.5 L 27.386719 11.023438 L 27.773438 11.648438 L 25.886719 12.742188 L 28.269531 16.890625 L 30.144531 15.847656 L 30.609375 16.59375 L 11.601562 27.5625 C 11.558594 27.582031 11.378906 27.691406 11.335938 27.699219 C 10.738281 28.015625 10.082031 28.273438 9.429688 28.476562 C 8.757812 28.640625 8.082031 28.742188 7.375 28.765625 C 6.675781 28.769531 5.964844 28.671875 5.273438 28.496094 C 4.605469 28.316406 3.957031 28.035156 3.359375 27.691406 C 2.738281 27.335938 2.15625 26.925781 1.6875 26.445312 C 1.25 26.011719 0.894531 25.542969 0.585938 25.046875 C 0.535156 24.960938 0.472656 24.859375 0.429688 24.78125 L 1.292969 24.261719 "/>
<path style=" stroke:none;fill-rule:nonzero;fill:rgb(100%,100%,100%);fill-opacity:1;" d="M 6.46875 23.996094 L 7.859375 26.394531 L 7.691406 26.882812 L 8.234375 26.984375 L 8.578125 27.625 C 8.46875 27.640625 8.328125 27.660156 8.234375 27.691406 C 7.945312 27.726562 7.664062 27.75 7.375 27.769531 C 6.785156 27.777344 6.144531 27.667969 5.570312 27.511719 C 4.984375 27.34375 4.394531 27.128906 3.875 26.855469 C 3.558594 26.667969 3.273438 26.480469 3.007812 26.25 C 2.949219 26.207031 2.875 26.128906 2.804688 26.085938 L 6.46875 23.996094 "/>
<path style=" stroke:none;fill-rule:nonzero;fill:rgb(100%,100%,100%);fill-opacity:1;" d="M 7.289062 23.507812 L 10.242188 21.824219 L 9.78125 25.558594 L 10.226562 25.636719 L 9.796875 26.027344 L 8.699219 25.914062 L 7.289062 23.507812 "/>
<path style=" stroke:none;fill-rule:nonzero;fill:rgb(100%,100%,100%);fill-opacity:1;" d="M 9.746094 27.316406 L 9.566406 27.382812 L 9.472656 27.257812 L 9.535156 27.222656 L 9.746094 27.316406 "/>
<path style=" stroke:none;fill-rule:nonzero;fill:rgb(100%,100%,100%);fill-opacity:1;" d="M 18.039062 22.816406 L 12.027344 26.316406 L 13.707031 21.332031 C 13.710938 21.261719 13.804688 21 13.84375 20.9375 C 13.90625 20.75 13.972656 20.585938 14.050781 20.410156 C 14.171875 20.179688 14.300781 19.972656 14.46875 19.777344 L 14.75 19.425781 C 14.828125 19.332031 14.988281 19.09375 15.066406 19.027344 C 15.152344 18.957031 15.238281 18.898438 15.324219 18.84375 C 15.382812 18.8125 15.449219 18.777344 15.503906 18.746094 C 15.554688 18.734375 15.605469 18.707031 15.648438 18.675781 L 18.039062 22.816406 "/>
<path style=" stroke:none;fill-rule:nonzero;fill:rgb(100%,100%,100%);fill-opacity:1;" d="M 18.902344 22.332031 L 16.511719 18.179688 L 23.210938 14.320312 C 23.253906 14.335938 23.289062 14.355469 23.316406 14.378906 C 23.527344 14.472656 23.742188 14.484375 23.957031 14.441406 C 24.144531 14.421875 24.324219 14.328125 24.492188 14.210938 C 24.628906 14.109375 24.734375 13.996094 24.828125 13.875 C 24.894531 13.757812 24.953125 13.605469 24.972656 13.46875 C 24.980469 13.421875 24.980469 13.339844 24.996094 13.296875 L 25.03125 13.289062 L 27.429688 17.4375 L 18.902344 22.332031 "/>
<path style=" stroke:none;fill-rule:nonzero;fill:rgb(100%,100%,100%);fill-opacity:1;" d="M 15.519531 13.339844 L 14.992188 12.441406 L 18.730469 10.28125 L 19.277344 11.152344 L 15.519531 13.339844 "/>
<path style=" stroke:none;fill-rule:nonzero;fill:rgb(100%,100%,100%);fill-opacity:1;" d="M 21.632812 14.335938 L 18.613281 9.144531 L 19.984375 10.160156 L 22.683594 13.714844 L 21.632812 14.335938 "/>
</g>
</svg>
